X: 36285
T: Seamus Cooley's
R: jig
M: 6/8
K: Gmajor
A2|:BAB G2 D|B,DD D2 D|DEG AGE|GAB A2 A|
BAB G2D|B,DD D2 D|DEG AGE|GAG G2 A:|
|:BAB d2B|d2 e dBA|G2 B AGE|GAB A2A|
BAB d2 B|d2 e dBA|G2 B AGE|GAG G2 A:|

